X:1
T:Come In, O Blessèd One
T:Come In, O Blessèd One
T:John Robson Sweney
T:Frances Jane (Fanny) Crosby, 1890
T:Public Domain Courtesy of the Cyber Hymnal™
C:John Robson Sweney
Z:Public Domain
Z:Courtesy of the Cyber Hymnal™
%%score ( 1 2 ) ( 3 4 )
L:1/8
Q:1/4=110
M:4/4
K:Ab
V:1 treble 
V:2 treble 
V:3 bass 
V:4 bass 
V:1
 [CE]2 | [CA]3 [CA] [B,G]2 [CA]2 | [EB]2 [Ec]2 [Ed]2 [Ed]2 | [Ac]3 [FB] [EA]2 [DG]2 | [CA]6 [CE]2 | %5
w: 1.~Come|in, come in, O|bless- èd One; My|heart is all Thine|own; Here|
w: 2.~Come|in, come in, O|bless- èd One; Thou|King of kings di-|vine; My|
w: 3.~Come|in, come in, O|bless- èd One; Whose|name the an- gels|praise, While|
w: 4.~Come|in, O sun of|right- eous- ness, And|source of end- less|day, Thou|
 [CA]3 [CA] [CA]2 [DB]2 | [Ec]2 [Fd]2 [Ec]2 [Ec]2 | [EB]3 [EB] [Ac]2 [A=d]2 | [Ge]6 z2 || %9
w: make Thy con- stant|dwell- ing place, Thy|tem- ple and Thy|throne.|
w: life, my will, my|ev- ery power, With-|out re- serve are|Thine.|
w: mor- tal tongues in|hum- bler strains, Their|grate- ful trib- ute|raise.|
w: Lamb of God, whose|cleans- ing blood Has|washed my sins a-|way.|
"^Refrain" e3 [Ae] [Af][Ae] z2 | c3 [Ec] [Fd][Ec] z2 | [EA]3 [EA] (AB) [Ec]2 | %12
w: |||
w: Hal- le- lu- jah,|hal- le- lu- jah,|For the grace * that|
w: |||
w: |||
 [Ed]2 [Ec]2 ([EB]2 [Ge]2) | e3 [Ae] [Af][Ae] z2 | c3 [Ec] [Fd][Ec] z2 | %15
w: |||
w: makes me free; *|Hal- le- lu- jah,|hal- le- lu- jah,|
w: |||
w: |||
 [CA]3 [CA] ([DB][Ec]) [Fd]2 | [Ec]2 [DB]2 [CA]2 |] %17
w: ||
w: Hal- le- lu- * jah,|Lord, to Thee.|
w: ||
w: ||
V:2
 x2 | x8 | x8 | x8 | x8 | x8 | x8 | x8 | x8 || (AAA) x5 | (EEE) x5 | x4 E2 x2 | x8 | (AAA) x5 | %14
 (EEE) x5 | x8 | x6 |] %17
V:3
 [A,,E,]2 | [A,,E,]3 [A,,E,] [D,E,]2 [C,E,]2 | [B,,G,]2 [A,,A,]2 [G,,B,]2 [G,,B,]2 | %3
w: ~|~ ~ ~ ~|~ ~ ~ ~|
 [A,,E]3 [D,D] [E,C]2 [E,B,]2 | [A,,A,]6 [A,,A,]2 | [A,,E,]3 [A,,E,] [A,,E,]2 [A,,E,]2 | %6
w: ~ ~ ~ ~|~ ~|~ ~ ~ ~|
 [A,,A,]2 [A,,A,]2 [A,,A,]2 [A,,A,]2 | [B,,G,]3 [B,,G,] [B,,F,]2 [B,,B,]2 | (B,4 _D2) z2 || %9
w: ~ ~ ~ ~|~ ~ ~ ~|~ *|
 [A,C][A,C][A,C][A,C] [A,D][A,C] z2 | [A,,A,][A,,A,][A,,A,][A,,A,] [A,,A,][A,,A,] z2 | %11
w: ~ Glo- ry, hal- le- lu-|jah, glo- ry, hal- le- lu-|
 [A,,C]3 [A,,C] ([C,A,][B,,G,]) [A,,A,]2 | [G,,B,]2 [A,,A,]2 (G,2 D2) | %13
w: jah, ~ ~ * ~|~ ~ ~ *|
 [A,C][A,C][A,C][A,C] [A,D][A,C] z2 | [A,,A,][A,,A,][A,,A,][A,,A,] [A,,A,][A,,A,] z2 | %15
w: ~ Glo- ry, hal- le- lu-|jah, glo- ry, hal- le- lu-|
 [A,,A,]3 [A,,E,] ([D,F,][C,=A,]) [B,,B,]2 | E,2 [E,G,]2 [A,,A,]2 |] %17
w: jah, * * * *||
V:4
 x2 | x8 | x8 | x8 | x8 | x8 | x8 | x8 | E,6 x2 || x8 | x8 | x8 | x4 E,4 | x8 | x8 | x8 | E,2 x4 |] %17

